X:1
T:Title
%%score ( 1 2 ) 3
L:1/8
Q:1/4=108
M:4/4
K:Bb
V:1 treble nm="Grand Piano, Soprano"
V:2 treble 
V:3 bass nm="Choir Pad, Christ Is Born (Davis)"
V:1
 [DF][CE] [B,D]2 [DF]2 [DB]2 | [FA]2 [FA]4 [EG]2 | [EG][EG] [DF]2 [EG]2 [DF]2 | [CE]2 [B,D]6 | %4
w: By~Grace~Weiser~Davis,~1894 * * * *||||
 [DF][CE] [B,D]2 [DF]2 [DB]2 | [FA]2 [FA]4 [EG]2 | [EG][EG] [DF]2 [DB]2 [Fd]2 | [Ec]2 [DB]6 | %8
w: ||||
 [DB][Ec] [Fd]2 [DB]2 [Fd]2 | [Fd]2 [Fc]6 | [FA][FB] [Fc]4 [Fc]2 | [Fc]2 [Fd]6 | %12
w: ||||
 [FB][Fc] [Fd]2 [Fd][Fd] [Fd]2 | [_Af][Af] f4 e2 | [GB][Gc] [Fd]4 [Fd]2 | [Ec]2 [DB]6- | %16
w: ||||
 [DB]2 z2 z4 |] %17
w: |
V:2
 x8 | x8 | x8 | x8 | x8 | x8 | x8 | x8 | x8 | x8 | x8 | x8 | x8 | z2 G6 | x8 | x8 | x8 |] %17
V:3
 [B,,B,][B,,B,] [B,,F,]2 [B,,B,]2 [B,,F,]2 | [D,B,]2 [E,B,]6 | %2
 [E,B,][E,B,] [B,,B,]2 [E,B,]2 [F,B,]2 | [F,A,]2 [B,,F,]6 | %4
 [B,,B,][B,,B,] [B,,F,]2 [B,,B,]2 [B,,F,]2 | [D,B,]2 [E,B,]6 | %6
 [E,B,][E,B,] [F,B,]2 [F,B,]2 [F,B,]2 | [F,A,]2 [B,,F,]6 | [B,,B,][B,,B,] [B,,B,]6 | %9
 [B,,B,][B,,B,] [F,A,]6 | F,[F,G,] [F,A,]4 [F,A,]2 | [F,A,]2 [B,,B,]6 | [D,B,][F,A,] B,2 B,B, B,2 | %13
 [D,B,][D,B,] [E,B,]6 | [E,B,][E,B,] [F,B,]4 [F,B,]2 | [F,A,]2 [B,,F,]6- | [B,,F,]2 z2 z4 |] %17

